<?xml version="1.0" encoding="UTF-8"?>
<map version="1.10" tiledversion="1.12.2" orientation="orthogonal" renderorder="right-down" width="20" height="20" tilewidth="64" tileheight="64" infinite="0" nextlayerid="6" nextobjectid="65">
 <editorsettings>
  <export target="nave.json" format="json"/>
 </editorsettings>
 <tileset firstgid="1" name="scifi_tiles" tilewidth="64" tileheight="64" tilecount="224" columns="7">
  <image source="tilesets/ScifiTilemap_64x64_v3.png" width="448" height="2048"/>
 </tileset>
 <layer id="1" name="Floor" width="20" height="20">
  <data encoding="csv">
0,0,0,0,0,18,18,18,18,18,18,18,18,18,18,0,0,0,0,0,
0,0,0,0,18,99,99,99,99,99,99,99,99,99,99,18,0,0,0,0,
0,18,18,18,99,99,99,99,99,99,99,99,99,99,99,99,18,18,18,0,
18,18,18,18,99,99,99,99,99,99,99,99,99,99,99,99,18,18,18,18,
18,18,18,18,99,99,99,99,99,99,99,99,99,99,99,99,18,18,18,18,
18,18,18,18,18,18,18,18,18,99,99,18,18,18,18,18,18,18,18,18,
18,18,18,18,18,18,18,18,18,99,99,18,18,18,18,18,18,18,18,18,
18,18,18,18,18,18,18,18,18,99,99,18,18,18,18,18,18,18,18,18,
18,18,18,18,18,18,18,18,18,99,99,18,18,18,99,99,99,99,99,99,
99,99,99,99,99,18,18,18,99,99,99,99,99,99,99,99,99,99,99,99,
99,99,99,99,99,99,99,99,99,99,99,99,99,18,99,99,99,99,99,99,
99,99,99,99,99,18,18,18,18,99,99,18,18,18,99,99,99,99,99,99,
99,99,99,99,99,18,18,18,18,99,99,18,18,18,18,18,18,18,18,18,
18,18,18,18,18,18,18,18,18,99,99,18,18,18,18,18,18,18,18,18,
18,18,18,18,18,18,18,18,18,99,99,18,18,18,18,18,18,18,18,18,
18,18,18,18,18,18,18,18,18,99,99,18,18,18,18,18,18,18,18,18,
18,18,18,18,18,18,18,18,18,18,18,18,18,18,18,18,18,18,18,18,
0,0,0,0,99,99,99,99,99,99,99,99,99,99,99,99,32,0,0,0,
0,0,0,0,99,99,99,99,99,99,99,99,99,99,99,99,0,0,0,0,
0,0,0,0,99,99,99,99,99,99,99,99,99,99,99,99,0,0,0,0
</data>
 </layer>
 <layer id="2" name="Walls" width="20" height="20">
  <data encoding="csv">
0,0,0,0,0,2,5,3,3,3,4,3,4,5,6,0,0,0,0,0,
0,0,0,0,8,9,0,0,0,0,0,0,0,0,13,14,0,0,0,0,
0,2,3,3,15,0,0,0,0,0,0,0,0,0,0,28,47,47,14,0,
8,9,0,0,30,0,0,0,0,0,0,0,0,0,0,21,0,0,13,6,
15,0,0,0,22,0,0,0,0,0,0,0,0,0,0,28,0,0,0,21,
30,0,0,0,59,4,3,5,3,102,102,4,5,4,5,60,0,0,0,21,
30,0,0,0,0,0,0,0,0,0,0,0,0,0,0,0,0,0,0,21,
30,0,0,0,0,0,0,0,0,0,0,0,0,0,45,47,5,5,5,5,
44,5,4,47,6,0,0,0,0,0,0,0,0,0,52,0,0,0,0,0,
0,0,0,0,53,0,0,0,0,0,0,0,0,0,111,0,0,0,0,0,
0,0,0,0,98,0,0,0,0,0,0,0,0,0,52,0,0,0,0,0,
0,0,0,0,53,0,0,0,0,0,0,0,0,0,52,0,0,0,0,0,
0,0,0,0,53,0,0,0,0,0,0,0,0,0,59,47,4,4,4,3,
44,47,4,5,60,0,0,0,0,0,0,0,0,0,0,0,0,0,0,21,
52,0,0,0,0,0,0,0,0,0,0,0,0,0,0,0,0,0,0,21,
52,0,0,0,0,0,0,0,0,0,0,0,0,0,0,0,0,0,0,21,
15,0,0,0,45,5,47,4,5,102,102,5,47,4,4,46,0,0,0,21,
38,40,38,40,52,0,0,0,0,0,0,0,0,0,0,28,38,38,41,41,
0,0,0,0,52,0,0,0,0,0,0,0,0,0,0,53,0,0,0,0,
0,0,0,0,52,0,0,0,0,0,0,0,0,0,0,53,0,0,0,0
</data>
 </layer>
 <layer id="3" name="Objects" width="20" height="20">
  <data encoding="csv">
0,0,0,0,0,0,0,0,0,0,0,0,0,0,0,0,0,0,0,0,
0,0,0,0,0,71,0,69,69,69,69,69,66,0,78,0,0,0,0,0,
0,0,0,0,71,0,0,0,0,0,0,0,0,0,0,67,0,0,0,0,
0,0,0,0,71,0,0,0,0,0,0,0,0,0,0,67,0,0,0,0,
0,0,0,0,71,0,0,0,0,0,0,0,0,0,0,67,0,0,0,0,
0,0,0,0,0,0,0,0,94,102,102,96,0,0,0,0,0,0,0,0,
0,0,0,0,0,0,0,0,0,0,0,0,0,0,0,0,0,0,0,0,
0,0,0,0,0,0,0,0,0,0,0,0,0,0,0,0,0,0,0,0,
0,0,0,0,0,0,0,0,0,0,0,0,0,0,78,67,69,71,0,0,
86,0,86,69,86,0,0,0,0,0,0,0,0,0,111,0,0,0,0,107,
0,0,0,0,98,0,0,0,0,0,0,0,0,0,118,0,0,0,0,93,
86,86,0,86,105,0,0,0,0,0,0,0,0,0,65,0,0,0,0,107,
86,0,0,67,86,0,0,0,0,0,0,0,0,0,0,0,0,0,0,0,
0,0,0,0,0,0,0,0,0,0,0,0,0,0,0,0,0,0,0,0,
0,0,0,0,0,0,0,0,0,0,0,0,0,0,0,0,0,0,0,0,
0,0,0,0,0,0,0,0,0,0,0,0,0,0,0,0,0,0,150,0,
0,0,0,0,0,0,0,0,101,0,102,103,0,0,0,0,0,0,0,0,
0,0,0,0,0,66,66,67,67,0,0,68,69,66,0,0,0,0,0,0,
0,0,0,0,71,0,0,0,0,0,0,0,0,0,0,67,0,0,0,0,
0,0,0,0,71,0,0,0,0,0,0,0,0,0,0,67,0,0,0,0
</data>
 </layer>
 <objectgroup id="5" name="Interactables">
  <object id="1" name="console_2" x="530" y="102"/>
  <object id="8" name="console_g" x="606" y="102"/>
  <object id="9" name="console_g" x="1132" y="544"/>
  <object id="10" name="console_3" x="722" y="102"/>
  <object id="11" name="console_g" x="222" y="598"/>
  <object id="12" name="console_g" x="798" y="1120"/>
  <object id="13" name="Puerta" x="604" y="358"/>
  <object id="16" name="Puerta" x="674" y="360"/>
  <object id="17" name="Puerta_1" x="906" y="606"/>
  <object id="18" name="Puerta_2" x="306" y="672"/>
  <object id="19" name="Puerta_3" x="607.333" y="1059.33"/>
  <object id="20" name="Puerta_3" x="670" y="1060"/>
  <object id="21" name="Fusible1" x="1248" y="544"/>
  <object id="22" name="Fusible" x="1178" y="1066"/>
  <object id="23" name="Fusible" x="100" y="272"/>
  <object id="24" name="Fusible2" x="100" y="600"/>
  <object id="25" name="Fusible2" x="96" y="788"/>
  <object id="26" name="Fusible" x="164" y="1040"/>
  <object id="27" name="Fusible3" x="360" y="1182"/>
  <object id="28" name="Fusible3" x="934" y="1118"/>
  <object id="29" name="Botiquin" x="1250" y="734"/>
  <object id="30" name="Botiquin" x="1254" y="618"/>
  <object id="31" name="CajaClabes" x="994" y="154"/>
  <object id="32" name="CajaClabes" x="994" y="220"/>
  <object id="33" name="CajaClabes" x="990" y="270"/>
  <object id="34" name="CajaClabes" x="986" y="528"/>
  <object id="35" name="CajaClabes" x="992" y="1172"/>
  <object id="36" name="CajaClabes" x="1000" y="1244"/>
  <object id="37" name="CajaClabes" x="486" y="1110"/>
  <object id="38" name="CajaClabes" x="548" y="1102"/>
  <object id="39" name="CajaClabes" x="222" y="794"/>
  <object id="41" name="Fusible" x="1180" y="846"/>
  <object id="56" name="Fusible3" x="864" y="1240"/>
  <object id="57" name="Fusible" x="72" y="902"/>
  <object id="58" name="Fusible" x="1180" y="334"/>
  <object id="59" name="Fusible" x="336" y="400"/>
  <object id="60" name="Fusible" x="72" y="474"/>
  <object id="61" name="Fusible2" x="28" y="656"/>
  <object id="62" name="console_g" x="660" y="96"/>
  <object id="63" name="console" x="1472" y="10"/>
  <object id="64" name="console_1" x="474" y="98"/>
 </objectgroup>
 <layer id="4" name="Colision" width="20" height="20">
  <data encoding="csv">
0,0,0,0,0,179,179,179,179,179,179,179,179,179,179,0,0,0,0,0,
0,0,0,0,0,171,68,0,192,192,192,192,0,68,171,179,0,0,0,0,
179,179,179,179,171,0,0,0,0,0,0,0,0,0,0,171,179,179,179,0,
179,0,0,0,171,0,0,0,0,0,0,0,0,0,0,171,0,0,0,179,
0,0,0,0,171,0,0,0,0,0,0,0,0,0,0,171,0,0,0,0,
0,0,0,0,179,179,179,179,179,0,0,179,179,179,179,179,0,0,0,0,
0,0,0,0,0,0,0,0,0,0,0,0,0,0,0,0,0,0,0,0,
0,0,0,0,0,0,0,0,0,0,0,0,0,0,179,179,179,179,179,179,
179,179,179,179,179,0,0,0,0,0,0,0,0,0,171,171,171,171,0,0,
179,0,179,179,171,0,0,0,0,0,0,0,0,0,0,0,0,0,0,171,
0,0,0,0,0,0,0,0,0,0,0,0,0,0,171,0,0,0,0,171,
179,179,0,179,179,0,0,0,0,0,0,0,0,0,171,0,0,0,0,171,
179,0,0,179,179,0,0,0,0,0,0,0,0,0,179,179,179,179,179,179,
179,179,179,179,179,0,0,0,0,0,0,0,0,0,0,0,0,0,0,183,
189,0,0,0,0,0,0,0,0,0,0,0,0,0,0,0,0,0,0,183,
189,0,0,0,0,0,0,0,0,0,0,0,0,0,0,0,0,0,0,183,
189,0,0,0,179,179,179,179,179,0,0,179,179,179,179,179,0,0,0,183,
179,179,179,179,0,171,171,171,171,0,0,171,171,171,0,0,179,179,179,179,
0,0,0,179,171,0,0,0,0,0,0,0,0,0,0,171,179,0,0,0,
0,0,0,179,171,0,0,0,0,0,0,0,0,0,0,171,179,0,0,0
</data>
 </layer>
</map>
